X:1
T:Title
%%score { 1 | 2 }
L:1/8
M:6/8
K:G
V:1 treble nm="Grand Piano"
V:2 bass 
V:1
 z3 z2[Q:1/4=90] [B,D] | [DB]>[DB][DB] [B,A][B,G][CA] | [DB]3 [B,G]2 [DG] | %3
 [EG]>[EG][EG] [FA][EG][CE] |[M:5/8] [B,D]-[B,D]- [B,D]3 |[M:1/8] [B,D] | %6
[M:3/4] [B,D]>[CE] [CF][B,G] [CA][DB] |[M:7/8] [=Fd]>[Ec][Ec] [Ec]3 [EAc] |[M:3/4] [DGB]>A GF GA | %9
 G6 | B3 A GA | B3 G3 | B3 A GA | B6 | EE E[EA] [DG][CE] | [B,D]2 [B,G] [DB]3 | %16
 [^CB]2 [CA] [CA]2 [GB] | [FA]6 | [B,G]>[B,G] [B,G][B,G] [CA][^C_B] | [DB]2 [B,G] [B,D]2 [B,D] | %20
 [CE]2 [CE] [EG]2 [EA] | [^DB]6 | E^D E[EA] [EG][CE] | %23
[M:15/16] [B,D][DG]/-[DG]/[FA][GB]3/2- [GB]3 | %24
[M:3/4] [GB]3 A EF[Q:1/4=87][Q:1/4=84][Q:1/4=82][Q:1/4=79][Q:1/4=76][Q:1/4=73][Q:1/4=70] | %25
[M:5/8] G-G- G3 |] %26
V:2
 z3 z2 [G,,G,] | [G,,G,]>[G,,G,][G,,G,] [G,,G,][G,,G,][G,,G,] | [G,,G,]3 [G,,D,]2 [B,,G,] | %3
 [C,C]>[C,C][C,C] [C,C][C,C][C,G,] |[M:5/8] [G,,G,]-[G,,G,]- [G,,G,]3 |[M:1/8] [G,,G,] | %6
[M:3/4] [G,,G,]>[G,,G,] [G,,G,][G,,G,] [A,,G,][B,,G,] |[M:7/8] [C,G,]>[C,G,][C,G,] [C,G,]3 C, | %8
[M:3/4] D,>[D,CD] [D,B,D][D,A,D] [D,B,D][D,CD] | [G,B,D]6 | [G,DG]3 [G,CD] [G,B,D][G,CD] | %11
 [G,DG]3 [G,B,D]3 | [G,DG]3 [G,CD] [G,B,D][G,CD] | [G,DG]6 | %14
 [C,G,C][C,G,C] [C,G,C][C,C] [C,C][C,G,] | [G,,D,]2 [G,,D,] [G,,G,]3 | %16
 [A,,E,]2 [A,,E,] [A,,E,]2 [A,,A,] | [D,A,]6 | [G,,D,]>[G,,D,] [G,,D,][G,,G,] [G,,G,][G,,G,] | %19
 [G,,G,]2 [G,,G,] [G,,G,]2 [G,,G,] | [C,G,]2 [C,G,] [C,G,]2 [C,G,] | [B,,F,]6 | %22
 [C,G,C][C,G,C] [C,G,C][C,C] [C,C][C,G,] |[M:15/16] [G,,G,][B,,G,]/-[B,,G,]/[D,D][G,D]3/2- [G,D]3 | %24
[M:3/4] [D,D]3 [D,CD] [D,A,C][D,A,C] |[M:5/8] [G,B,D]-[G,B,D]- [G,B,D]3 |] %26

